X: 20182
Q: "Alleg.o"
M: 6/8
L: 1/8
K: G
|: d |\
g2g (ga).b | (d>e).d (dB).d | g2g g>a.b | (ge).g {g}f2d |\
(d>e).f (g>f).e | (dB).d (g>a).b | (ge).g (dB).G | (B>c).B B2 |]


